public/img/microphone.svg

<svg height="512" viewBox="0 0 64 64" width="512" xmlns="http://www.w3.org/2000/svg"><path d="m30 44.89a17.039 17.039 0 0 1 -15-16.89v-2a2.006 2.006 0 0 1 2-2 2.015 2.015 0 0 1 2 2v1.62a13.239 13.239 0 0 0 12.35 13.36 13.005 13.005 0 0 0 13.65-12.98v-2a2 2 0 0 1 4 0v1.55a17.487 17.487 0 0 1 -15 17.32 15.688 15.688 0 0 1 -2.28.13c-.58-.01-1.15-.05-1.72-.11z" fill="#ff7956"/><path d="m44 59v2h-24v-2a2.006 2.006 0 0 1 2-2h20a2.006 2.006 0 0 1 2 2z" fill="#b2fa09"/><path d="m23 28v-16a9 9 0 0 1 18 0v16a9 9 0 0 1 -18 0z" fill="#ffde55"/><path d="m40 57h-16a4 4 0 0 1 4-4h8a4 4 0 0 1 4 4z" fill="#ff7956"/><path d="m34 44.88v8.12h-4v-8.11c.57.06 1.14.1 1.72.11a15.688 15.688 0 0 0 2.28-.13z" fill="#b2fa09"/><path d="m32 38a10.011 10.011 0 0 0 10-10v-16a10 10 0 0 0 -20 0v16a10.011 10.011 0 0 0 10 10zm0-34a8.008 8.008 0 0 1 7.931 7h-4.931v2h5v2h-5v2h5v2h-5v2h5v2h-5v2h5v2h-5v2h4.931a7.993 7.993 0 0 1 -15.862 0h4.931v-2h-5v-2h5v-2h-5v-2h5v-2h-5v-2h5v-2h-5v-2h5v-2h-4.931a8.008 8.008 0 0 1 7.931-7z"/><path d="m47 23a3 3 0 0 0 -3 3v2a12.012 12.012 0 0 1 -12.6 11.985 12.183 12.183 0 0 1 -11.4-12.36v-1.625a3 3 0 0 0 -6 0v2a18.083 18.083 0 0 0 15 17.725v6.275h-1a5.009 5.009 0 0 0 -4.9 4h-1.1a3 3 0 0 0 -3 3v2a1 1 0 0 0 1 1h24a1 1 0 0 0 1-1v-2a3 3 0 0 0 -3-3h-1.1a5.009 5.009 0 0 0 -4.9-4h-1v-6.279a17.774 17.774 0 0 0 9.4-4.89 18.763 18.763 0 0 0 5.6-13.283v-1.548a3 3 0 0 0 -3-3zm-4 36v1h-22v-1a1 1 0 0 1 1-1h20a1 1 0 0 1 1 1zm-4.184-3h-13.632a3 3 0 0 1 2.816-2h8a3 3 0 0 1 2.816 2zm-5.816-4h-2v-6.05c.235.014.466.044.7.048h.284c.34 0 .675-.031 1.012-.051zm15-24.452a16.751 16.751 0 0 1 -5 11.857 15.674 15.674 0 0 1 -11.263 4.595 16.071 16.071 0 0 1 -15.737-16v-2a1 1 0 0 1 2 0v1.625a14.181 14.181 0 0 0 13.3 14.358 14.013 14.013 0 0 0 14.7-13.983v-2a1 1 0 0 1 2 0z"/><path d="m2 13a11.013 11.013 0 0 0 11 11v-2a9 9 0 0 1 0-18v-2a11.013 11.013 0 0 0 -11 11z"/><path d="m6 13a7.008 7.008 0 0 0 7 7v-2a5 5 0 0 1 0-10v-2a7.008 7.008 0 0 0 -7 7z"/><path d="m10 13a3 3 0 0 0 3 3v-2a1 1 0 0 1 0-2v-2a3 3 0 0 0 -3 3z"/><path d="m51 2v2a9 9 0 0 1 0 18v2a11 11 0 0 0 0-22z"/><path d="m58 13a7.008 7.008 0 0 0 -7-7v2a5 5 0 0 1 0 10v2a7.008 7.008 0 0 0 7-7z"/><path d="m54 13a3 3 0 0 0 -3-3v2a1 1 0 0 1 0 2v2a3 3 0 0 0 3-3z"/></svg>

<?xml version="1.0"?>
<svg xmlns="http://www.w3.org/2000/svg" viewBox="0 0 64 64" width="512" height="512"><g id="Microphone"><path d="M32,38A10.011,10.011,0,0,0,42,28V12a10,10,0,0,0-20,0V28A10.011,10.011,0,0,0,32,38ZM32,4a8.008,8.008,0,0,1,7.931,7H35v2h5v2H35v2h5v2H35v2h5v2H35v2h5v2H35v2h4.931a7.993,7.993,0,0,1-15.862,0H29V27H24V25h5V23H24V21h5V19H24V17h5V15H24V13h5V11H24.069A8.008,8.008,0,0,1,32,4Z"/><path d="M47,23a3,3,0,0,0-3,3v2A12.012,12.012,0,0,1,31.4,39.985,12.183,12.183,0,0,1,20,27.625V26a3,3,0,0,0-6,0v2A18.083,18.083,0,0,0,29,45.725V52H28a5.009,5.009,0,0,0-4.9,4H22a3,3,0,0,0-3,3v2a1,1,0,0,0,1,1H44a1,1,0,0,0,1-1V59a3,3,0,0,0-3-3H40.9A5.009,5.009,0,0,0,36,52H35V45.721a17.774,17.774,0,0,0,9.4-4.89A18.763,18.763,0,0,0,50,27.548V26A3,3,0,0,0,47,23ZM43,59v1H21V59a1,1,0,0,1,1-1H42A1,1,0,0,1,43,59Zm-4.184-3H25.184A3,3,0,0,1,28,54h8A3,3,0,0,1,38.816,56ZM33,52H31V45.95c.235.014.466.044.7.048l.284,0c.34,0,.675-.031,1.012-.051ZM48,27.548a16.751,16.751,0,0,1-5,11.857A15.674,15.674,0,0,1,31.737,44,16.071,16.071,0,0,1,16,28V26a1,1,0,0,1,2,0v1.625A14.181,14.181,0,0,0,31.3,41.983,14.013,14.013,0,0,0,46,28V26a1,1,0,0,1,2,0Z"/><path d="M2,13A11.013,11.013,0,0,0,13,24V22A9,9,0,0,1,13,4V2A11.013,11.013,0,0,0,2,13Z"/><path d="M6,13a7.008,7.008,0,0,0,7,7V18A5,5,0,0,1,13,8V6A7.008,7.008,0,0,0,6,13Z"/><path d="M10,13a3,3,0,0,0,3,3V14a1,1,0,0,1,0-2V10A3,3,0,0,0,10,13Z"/><path d="M51,2V4a9,9,0,0,1,0,18v2A11,11,0,0,0,51,2Z"/><path d="M58,13a7.008,7.008,0,0,0-7-7V8a5,5,0,0,1,0,10v2A7.008,7.008,0,0,0,58,13Z"/><path d="M54,13a3,3,0,0,0-3-3v2a1,1,0,0,1,0,2v2A3,3,0,0,0,54,13Z"/></g></svg>
